X:1
T:[ID 8-83]
T:[ID 8-83]
T:Bezeichnung standardisiert: Schwabisch Schwabisch
T:Urheber unbekannt Datum in der hier transkribierten schriftlichen Quelle: 1799
C:Urheber unbekannt
C:Datum in der hier transkribierten schriftlichen Quelle: 1799
%%score 1 2
L:1/8
M:3/8
K:Eb
V:1 treble nm="Primo"
V:2 treble nm="Secondo"
V:1
 BBB | ccc | ddd | e/d/e/f/e | BBB | ccc | ddd | e3 :: faf | gbe | dfd | e/d/e/f/e | faf | gbe | %14
 dfd | e3 :| %16
V:2
 !fermata!GGG | AAA | FFF | G/F/G/A/G | GGG | AAA | FFF | G3 :: dfd | egG | FAF | G/F/G/A/G | dfd | %13
 egG | FAF | G3 :| %16

